X: 30221
T: Old Hag, You Have Killed Me
R: jig
M: 6/8
K: Amixolydian
|:cAA G2E|A3 GED|EG/F/E EFD|EG/F/E EFD|
c2A G3|A3 GEA|D3 DGE|1 D3 D2B:|2 D3 D2B||
|:c3 d2B|cBA GED|EG/F/E EFD|EG/F/E EFA|
c3 d2B|cBA GEA|D3 DGE|D3 DFA|
c2A d2B|cBA GED|E3 EFD|E3 F/G/AB|
c2A d3|ecA GEA|D3 DGE|D3 D3||

